icons/fiber-dark.svg

<svg xmlns="http://www.w3.org/2000/svg" width="256" height="256" fill="none"><path fill="#282828" d="M196 0H60C26.863 0 0 26.863 0 60v136c0 33.137 26.863 60 60 60h136c33.137 0 60-26.863 60-60V60c0-33.137-26.863-60-60-60"/><path fill="#fff" d="M78.134 101.597h37.279l-1.816 10.721H89.519l-1.812 11.199h21.705l-1.813 10.756H85.894l-3.629 21.946H69.067zm37.883 13.654h13.04l-6.814 40.958h-13.04zm1.582-11.038c.537-3.432 3.926-6.213 7.592-6.213 3.667 0 6.28 2.781 5.824 6.213-.455 3.433-3.866 6.239-7.545 6.239s-6.371-2.829-5.871-6.239m18.224-2.616h13.037l-3.385 20.667h.279c2.132-3.761 6.374-7.545 12.853-7.545 8.561 0 15.185 6.587 12.771 21.038-2.293 13.945-10.825 21.037-19.892 21.037-6.185 0-9.279-3.438-10.237-7.225h-.51l-1.066 6.643h-12.901zm12.879 45.055c4.799 0 8.225-4.293 9.279-10.905 1.053-6.611-.854-10.828-5.695-10.828-4.773 0-8.266 4.134-9.332 10.828-1.079 6.622.974 10.905 5.748 10.905m24.192-10.756c2.104-12.692 11.49-21.17 23.837-21.17 11.626 0 18.561 7.437 16.321 20.904l-.509 3.252h-27.276l-.083.481c-.825 5.201 1.627 8.225 6.72 8.225 3.388 0 6.327-1.439 7.814-4.185l11.891.345C208.705 151.802 200.891 157 190.097 157c-12.859-.019-19.417-8.016-17.203-21.104m28.744-4.587c.668-4.186-1.841-7.172-6.106-7.172-4.213 0-7.946 3.119-8.88 7.172zm17.763-16.058h12.655l-1.266 7.466h.427c2.427-5.413 6.451-8.017 10.93-8.017a15.5 15.5 0 0 1 3.575.443l-1.92 11.36c-1.199-.452-3.414-.692-5.04-.692-4.612 0-8.614 3.28-9.465 8.158l-3.682 22.24h-13.037z"/><path fill="#00ACD7" d="M70.073 116.095H27.52l-3.404 4.831 45.17-.025zm-1.503 10.013H13.502L10 130.92l57.782-.041zm-1.503 10.009H43.54l-3.164 4.831 25.903-.019z"/></svg>

<svg width="256" height="256" viewBox="0 0 256 256" fill="none" xmlns="http://www.w3.org/2000/svg">
<path d="M196 0H60C26.8629 0 0 26.8629 0 60V196C0 229.137 26.8629 256 60 256H196C229.137 256 256 229.137 256 196V60C256 26.8629 229.137 0 196 0Z" fill="#282828"/>
<path d="M78.1336 101.597H115.413L113.597 112.318H89.5192L87.7065 123.517H109.412L107.599 134.273H85.8938L82.2652 156.219H69.0669L78.1336 101.597Z" fill="white"/>
<path d="M116.017 115.251H129.057L122.243 156.209H109.203L116.017 115.251ZM117.599 104.213C118.136 100.781 121.525 98 125.191 98C128.858 98 131.471 100.781 131.015 104.213C130.56 107.646 127.149 110.452 123.47 110.452C119.791 110.452 117.099 107.623 117.599 104.213Z" fill="white"/>
<path d="M135.823 101.597H148.86L145.475 122.264H145.754C147.886 118.503 152.128 114.719 158.607 114.719C167.168 114.719 173.792 121.306 171.378 135.757C169.085 149.702 160.553 156.794 151.486 156.794C145.301 156.794 142.207 153.356 141.249 149.569H140.739L139.673 156.212H126.772L135.823 101.597ZM148.702 146.652C153.501 146.652 156.927 142.359 157.981 135.747C159.034 129.136 157.127 124.919 152.286 124.919C147.513 124.919 144.02 129.053 142.954 135.747C141.875 142.369 143.928 146.652 148.702 146.652Z" fill="white"/>
<path d="M172.894 135.896C174.998 123.204 184.384 114.726 196.731 114.726C208.357 114.726 215.292 122.163 213.052 135.63L212.543 138.882H185.267L185.184 139.363C184.359 144.564 186.811 147.588 191.904 147.588C195.292 147.588 198.231 146.149 199.718 143.403L211.609 143.748C208.705 151.802 200.891 157 190.097 157C177.238 156.981 170.68 148.984 172.894 135.896ZM201.638 131.309C202.306 127.123 199.797 124.137 195.532 124.137C191.319 124.137 187.586 127.256 186.652 131.309H201.638Z" fill="white"/>
<path d="M219.401 115.251H232.056L230.79 122.717H231.217C233.644 117.304 237.668 114.7 242.147 114.7C243.352 114.708 244.552 114.857 245.722 115.143L243.802 126.503C242.603 126.051 240.388 125.811 238.762 125.811C234.15 125.811 230.148 129.091 229.297 133.969L225.615 156.209H212.578L219.401 115.251Z" fill="white"/>
<path d="M70.0729 116.095H27.5202L24.1162 120.926L69.2852 120.901L70.0729 116.095Z" fill="#00ACD7"/>
<path d="M68.5698 126.108H13.502L10 130.92L67.782 130.879L68.5698 126.108Z" fill="#00ACD7"/>
<path d="M67.0668 136.117H43.5395L40.376 140.948L66.279 140.929L67.0668 136.117Z" fill="#00ACD7"/>
</svg>
